public/icons/book.svg

<svg width="24" height="24" viewBox="0 0 24 24" fill="none" xmlns="http://www.w3.org/2000/svg">
<path fill-rule="evenodd" clip-rule="evenodd" d="M6.66667 3H17.3333C18.8061 3 20 4.20883 20 5.7V15.9863C20.0051 16.3532 19.8072 16.7012 19.4741 16.8805C19.4701 16.9121 19.4671 16.9725 19.4789 17.0716C19.5212 17.4286 19.6957 17.8945 19.9349 18.4899L19.9638 18.5619C20.0656 18.8148 20.1757 19.0887 20.2647 19.346C20.3597 19.6203 20.4562 19.946 20.4843 20.2681C20.5112 20.5781 20.4903 21.0721 20.1297 21.4838C19.7606 21.9051 19.249 22 18.8536 22H7.85943C5.68388 22 4.01086 20.1591 4.00005 17.9999L4 17.9789V5.7C4 4.20883 5.19391 3 6.66667 3ZM6 17.9789C6 17.4383 6.43827 17 6.9789 17H17.4711C17.4732 17.1065 17.4812 17.2094 17.4928 17.3069C17.5716 17.9723 17.8596 18.6892 18.0734 19.2215L18.1045 19.2987C18.2109 19.5636 18.3026 19.7917 18.3747 20L7.85943 20C6.8836 20 6 19.1477 6 17.9789ZM18.8897 19.9987L18.8937 19.9982C18.8938 19.9983 18.8925 19.9985 18.8897 19.9987Z" fill="#1574E5"/>
</svg>

<svg xmlns="http://www.w3.org/2000/svg" width="24" height="24" fill="none"><path fill="#1574E5" fill-rule="evenodd" d="M6.667 3h10.666C18.806 3 20 4.209 20 5.7v10.286a1 1 0 0 1-.526.895.8.8 0 0 0 .005.19c.042.358.217.823.456 1.419l.029.072c.102.253.212.527.3.784.096.274.192.6.22.922.027.31.006.804-.354 1.216-.37.421-.881.516-1.276.516H7.859C5.684 22 4.011 20.16 4 18V5.7C4 4.209 5.194 3 6.667 3M6 17.979c0-.54.438-.979.979-.979H17.47q.004.161.022.307c.079.665.367 1.382.58 1.915l.032.077c.106.265.198.493.27.701H7.859C6.884 20 6 19.148 6 17.979m12.89 2.02h.004z" clip-rule="evenodd"/></svg>
